X: 100250
T: Jackie Roche's Favorite
Z: B.Black
N: May have been composed by James Morrison under the name
N: "The Pilgrim" (< D.Collins)
R: jig
M: 6/8
L: 1/8
K: Dmix
ABA DED | A2 B cBA | G3 GEF | GAG EFG |
ABA DED | AGE cBA | GFG A2 G | FDD D3 :|
fdf ged | cAG EFG | f2 f ged | eag efg |
fdf ged | cAG EFG | A2 A BAG | FDD D3 :|
